brandFactory_export/1.Light/Planta _1Light.svg

<?xml version="1.0" encoding="UTF-8"?>
<svg width="24px" height="24px" viewBox="0 0 24 24" version="1.1" xmlns="http://www.w3.org/2000/svg" xmlns:xlink="http://www.w3.org/1999/xlink">
    <title>1.Light/Planta _1Light</title>
    <g id="Symbols" stroke="none" stroke-width="1" fill="none" fill-rule="evenodd">
        <g id="1.Light/Planta-_1Light" fill="#5CB615" fill-rule="nonzero">
            <path d="M18.7327731,5.61008403 C18.7260504,5.64033613 18.7193277,5.67058824 18.7193277,5.70084034 C18.6487395,7.3512605 17.7512605,8.1512605 15.9764706,8.1512605 C15.3310924,8.1512605 14.810084,8.03361345 14.3932773,7.81848739 C15.0521008,6.84033613 15.902521,6.03361345 16.994958,5.72773109 C17.2537815,5.6605042 17.4117647,5.39831933 17.3445378,5.13613445 C17.3445378,5.12941176 17.3411765,5.12605042 17.3411765,5.11932773 C17.2571429,4.85714286 16.9747899,4.7092437 16.7092437,4.78655462 C15.4084034,5.15294118 14.4067227,6.0302521 13.6268908,7.13613445 C13.3579832,6.71596639 13.2201681,6.16806723 13.2201681,5.49579832 C13.2201681,3.71428571 14.1243697,2.84705882 15.9798319,2.84705882 L18.194958,2.84705882 C18.487395,2.84033613 18.7294118,3.07226891 18.7361345,3.36470588 L18.7327731,5.61008403 L18.7327731,5.61008403 Z M18.0201681,13.3680672 L18.0201681,15.1596639 C18.0201681,15.4453782 17.7781513,15.6773109 17.4823529,15.6773109 L6.26554622,15.6773109 C5.97310924,15.6840336 5.73445378,15.4521008 5.72773109,15.1630252 L5.72773109,13.3714286 C5.72773109,13.0857143 5.9697479,12.8537815 6.26554622,12.8537815 L17.4823529,12.8537815 C17.7781513,12.8504202 18.0201681,13.0823529 18.0201681,13.3680672 L18.0201681,13.3680672 Z M15.8890756,22.3193277 C15.8890756,22.497479 15.7378151,22.6453782 15.5529412,22.6453782 L8.19831933,22.6453782 C8.01008403,22.6453782 7.85882353,22.497479 7.85546218,22.2689076 L7.21008403,16.6554622 L16.5310924,16.6554622 L15.8890756,22.3193277 Z M7.79159664,6.29915966 C6.01008403,6.29915966 5.1092437,5.49243697 5.03865546,3.85546218 C5.03865546,3.81848739 5.03529412,3.78151261 5.02521008,3.74789916 L5.02521008,1.5092437 C5.02521008,1.21680672 5.27058824,0.978151261 5.57310924,0.978151261 L7.79831933,0.978151261 C9.6605042,0.978151261 10.5647059,1.8487395 10.5647059,3.64033613 C10.5647059,4.28907563 10.4235294,4.82352941 10.1579832,5.24705882 C8.92436975,3.27394958 7.56302521,2.88739496 7.46554622,2.86386555 C7.2,2.79663866 6.93109244,2.94789916 6.85042017,3.20672269 C6.77983193,3.46890756 6.93445378,3.73781513 7.19663866,3.80840336 L7.20336134,3.80840336 C7.22352941,3.81176471 8.35966387,4.16806723 9.40504202,5.96302521 C8.97815126,6.18487395 8.43697479,6.29915966 7.79159664,6.29915966 L7.79159664,6.29915966 Z M18.194958,1.86890756 L15.9764706,1.86890756 C13.5731092,1.86890756 12.1983193,3.18991597 12.1983193,5.49579832 C12.1983193,6.3697479 12.3932773,7.10588235 12.8033613,7.72436975 L13.0621849,8.04705882 C12.5781513,8.92773109 12.2084034,9.88235294 11.9226891,10.8134454 C11.6672269,8.83697479 11.2134454,7.32773109 10.6857143,6.20840336 L10.8235294,6.05714286 C10.8302521,6.04705882 10.8369748,6.03697479 10.8470588,6.0302521 C11.3378151,5.41176471 11.5831933,4.60504202 11.5831933,3.63697479 C11.5798319,1.2907563 10.2352941,0 7.79495798,0 L5.5697479,0 C4.70588235,0 4.00336134,0.675630252 4.00336134,1.5092437 L4.00336134,3.81512605 C4.00336134,3.85210084 4.01008403,3.89579832 4.02016807,3.9394958 C4.13781513,6.09411765 5.47226891,7.28067227 7.78823529,7.28067227 C8.58487395,7.28067227 9.26722689,7.12941176 9.84537815,6.8302521 C10.3663866,8.00672269 10.8168067,9.62689076 11.0151261,11.8521008 C11.0151261,11.8588235 11.0218487,11.8655462 11.0218487,11.8722689 L6.26554622,11.8722689 C5.40840336,11.8722689 4.7092437,12.5445378 4.7092437,13.3680672 L4.7092437,15.1596639 C4.7092437,15.9563025 5.36806723,16.605042 6.18823529,16.6453782 L6.84033613,22.3193277 C6.84033613,23.0386555 7.45210084,23.6235294 8.19831933,23.6235294 L15.5495798,23.6235294 C16.2991597,23.6235294 16.907563,23.0386555 16.9042017,22.3731092 L17.5630252,16.6453782 C18.3831933,16.605042 19.0420168,15.9563025 19.0420168,15.1596639 L19.0420168,13.3680672 C19.0420168,12.5445378 18.3428571,11.8722689 17.4823529,11.8722689 L12.6789916,11.8722689 C12.9210084,10.9445378 13.307563,9.75462185 13.8857143,8.66218487 C14.4571429,8.96134454 15.1462185,9.12941176 15.9764706,9.12941176 C18.2789916,9.12941176 19.610084,7.95966387 19.7378151,5.80840336 C19.7478992,5.76806723 19.7546218,5.72436975 19.7546218,5.68067227 L19.7546218,3.37142857 C19.7546218,2.54117647 19.0521008,1.86890756 18.194958,1.86890756 Z" id="Planta-_1Light"></path>
        </g>
    </g>
</svg>

<svg width="24" height="24" viewBox="0 0 24 24" xmlns="http://www.w3.org/2000/svg"><path d="M18.733 5.61a.423.423 0 00-.014.09c-.07 1.651-.968 2.451-2.743 2.451-.645 0-1.166-.117-1.583-.333.66-.978 1.51-1.784 2.602-2.09a.486.486 0 00.35-.592c0-.007-.004-.01-.004-.017a.514.514 0 00-.632-.332c-1.3.366-2.302 1.243-3.082 2.35-.269-.421-.407-.969-.407-1.641 0-1.782.904-2.649 2.76-2.649h2.215a.53.53 0 01.541.518l-.003 2.245zm-.713 7.758v1.792a.529.529 0 01-.538.517H6.266a.526.526 0 01-.538-.514v-1.792c0-.285.242-.517.538-.517h11.216a.524.524 0 01.538.514zm-2.13 8.951a.333.333 0 01-.337.326H8.198c-.188 0-.34-.148-.343-.376l-.645-5.614h9.321l-.642 5.664zM7.791 6.3c-1.782 0-2.683-.807-2.753-2.444a.378.378 0 00-.014-.107V1.509a.54.54 0 01.548-.53h2.225c1.863 0 2.767.87 2.767 2.661 0 .65-.141 1.184-.407 1.607-1.234-1.973-2.595-2.36-2.692-2.383a.511.511 0 00-.616.343.49.49 0 00.347.601h.006c.02.004 1.157.36 2.202 2.155-.427.222-.968.336-1.613.336zm10.403-4.43h-2.219c-2.403 0-3.778 1.32-3.778 3.627 0 .874.195 1.61.605 2.228l.26.323c-.485.88-.855 1.835-1.14 2.766-.256-1.976-.71-3.485-1.237-4.605l.138-.15a.09.09 0 01.023-.028c.49-.618.736-1.425.736-2.393C11.58 1.291 10.235 0 7.795 0H5.57c-.864 0-1.567.676-1.567 1.51v2.305c0 .037.007.08.017.124.118 2.155 1.452 3.342 3.768 3.342.797 0 1.48-.152 2.057-.45.521 1.176.972 2.796 1.17 5.021 0 .007.007.014.007.02H6.266c-.858 0-1.557.673-1.557 1.496v1.792c0 .796.66 1.445 1.48 1.485l.651 5.674c0 .72.612 1.305 1.358 1.305h7.352c.75 0 1.358-.585 1.354-1.25l.659-5.729c.82-.04 1.479-.689 1.479-1.485v-1.792c0-.823-.7-1.496-1.56-1.496H12.68c.242-.927.629-2.117 1.207-3.21.571.3 1.26.467 2.09.467 2.303 0 3.634-1.17 3.762-3.32a.532.532 0 00.017-.128V3.37c0-.83-.703-1.502-1.56-1.502z" fill="#5CB615" fill-rule="nonzero"/></svg>
